X:637
T:Sleep Sound In Da Mornin'
C:Joe Buchanan's Scottish Tome - Page 190.2
I:190 2
R:Reel
Z:Carl Allison
L:1/8
M:4/4
K:Amin
G | A(a-a^g) a2 (ef) | gedB GABG | A(a-a^g) a2 (ef) | gedB A2 (BG) |
A(a-a^g) a2 (ef) | gedB GABG | A(a-a^g) a2 (ef) | gedB A3 |
B | =cAeA cAe(A | B=c)dB G3 B | =cAe(A cA)e(A | BA)GB A2 (AB) |
=cAeA cAe(A | B=c)dB G2 (GB) | AB=cd efga | gedB A4 |]

